Polaris-FE/assets/images/VE1.svg

<?xml version="1.0" encoding="UTF-8" standalone="no"?>
<!-- Created with Inkscape (http://www.inkscape.org/) -->

<svg
   xmlns:dc="http://purl.org/dc/elements/1.1/"
   xmlns:cc="http://creativecommons.org/ns#"
   xmlns:rdf="http://www.w3.org/1999/02/22-rdf-syntax-ns#"
   xmlns:svg="http://www.w3.org/2000/svg"
   xmlns="http://www.w3.org/2000/svg"
   xmlns:sodipodi="http://sodipodi.sourceforge.net/DTD/sodipodi-0.dtd"
   xmlns:inkscape="http://www.inkscape.org/namespaces/inkscape"
   width="1024"
   height="1024"
   viewBox="0 0 1024 1024"
   id="svg2"
   version="1.1"
   inkscape:version="0.91 r13725"
   sodipodi:docname="VE-1.svg"
   inkscape:export-filename="G:\SOEN 390 Floorplans\VL-2.png"
   inkscape:export-xdpi="90"
   inkscape:export-ydpi="90">
  <defs
     id="defs4" />
  <sodipodi:namedview
     id="base"
     pagecolor="#ffffff"
     bordercolor="#666666"
     borderopacity="1.0"
     inkscape:pageopacity="0.0"
     inkscape:pageshadow="2"
     inkscape:zoom="0.7"
     inkscape:cx="49.655533"
     inkscape:cy="536.38253"
     inkscape:document-units="px"
     inkscape:current-layer="g4664"
     showgrid="false"
     inkscape:snap-page="false"
     units="px"
     inkscape:object-paths="true"
     inkscape:snap-intersection-paths="true"
     inkscape:object-nodes="true"
     inkscape:snap-bbox="false"
     inkscape:window-width="1920"
     inkscape:window-height="1014"
     inkscape:window-x="0"
     inkscape:window-y="27"
     inkscape:window-maximized="1"
     inkscape:snap-nodes="true"
     inkscape:snap-others="false" />
  <metadata
     id="metadata7">
    <rdf:RDF>
      <cc:Work
         rdf:about="">
        <dc:format>image/svg+xml</dc:format>
        <dc:type
           rdf:resource="http://purl.org/dc/dcmitype/StillImage" />
        <dc:title />
      </cc:Work>
    </rdf:RDF>
  </metadata>
  <g
     style="display:inline"
     inkscape:label="VE1 vec copy"
     id="g4664"
     inkscape:groupmode="layer">
    <path
       id="path4672"
       d="m 790.17773,42.214844 0,94.642576 -97.21289,0 0,32.04883 0,25.75781 14.64649,0 0,6.0625 33.83984,0 0,-31.82031 48.72656,0 0,1.00977 33.60157,0 0,-47.34375 6.5664,0 0,-80.357426 -6.5664,0 -33.60157,0 z"
       style="fill:#f7d6d6;fill-opacity:1;stroke:#000000;stroke-width:2;stroke-miterlimit:4;stroke-dasharray:none;stroke-opacity:1"
       inkscape:connector-curvature="0" />
    <rect
       y="168.90587"
       x="707.61188"
       height="31.819807"
       width="33.840092"
       id="rect4666"
       style="fill:#da3636;fill-opacity:1;stroke:#000000;stroke-width:2;stroke-miterlimit:4;stroke-dasharray:none;stroke-opacity:1" />
    <path
       inkscape:connector-curvature="0"
       id="path4668"
       d="m 790.17773,42.214844 0,127.701176 33.60157,0 0,-47.34375 6.5664,0 0,-80.357426 -6.5664,0 -33.60157,0 z"
       style="fill:#da3636;fill-opacity:1;stroke:#000000;stroke-width:2;stroke-miterlimit:4;stroke-dasharray:none;stroke-opacity:1" />
    <rect
       y="168.90587"
       x="692.96466"
       height="25.758892"
       width="14.647231"
       id="rect4670"
       style="fill:#da3636;fill-opacity:1;stroke:#000000;stroke-width:2;stroke-miterlimit:4;stroke-dasharray:none;stroke-opacity:1" />
  </g>
</svg>

<svg width="1024" height="1024" viewBox="0 0 1024 1024" fill="none" xmlns="http://www.w3.org/2000/svg">
<path d="M790.178 42.2148V136.857H692.965V168.906V194.664H707.611V200.727H741.451V168.906H790.178V169.916H823.779V122.572H830.346V42.2148H823.779H790.178Z" stroke="black" stroke-width="2"/>
<path d="M741.452 168.906H707.612V200.726H741.452V168.906Z" stroke="black" stroke-width="2"/>
<path d="M790.178 42.2148V169.916H823.779V122.572H830.346V42.2148H823.779H790.178Z" stroke="black" stroke-width="2"/>
<path d="M707.612 168.906H692.965V194.665H707.612V168.906Z" stroke="black" stroke-width="2"/>
</svg>
